src/4-icons/point.svg

<svg width="260" height="260" viewBox="0 0 260 260" fill="none" xmlns="http://www.w3.org/2000/svg">
<path d="M220.94 112.967C220.849 110.211 220.245 107.605 219.127 105.302C217.314 101.515 214.262 98.7285 210.908 97.0314C207.555 95.3048 203.898 94.5782 200.241 94.5474C196.797 94.5474 193.351 95.2752 190.149 96.7285C189.847 95.4563 189.424 94.2137 188.849 93.093C187.007 89.2457 183.924 86.4279 180.54 84.6705C177.155 82.9132 173.408 82.0954 169.722 82.0954C166.368 82.0954 162.983 82.8232 159.841 84.2457C159.539 83.0942 159.145 81.9439 158.632 80.9132C156.759 77.0658 153.677 74.2185 150.293 72.4611C146.878 70.6742 143.132 69.8564 139.384 69.8564C136.333 69.8564 133.22 70.4327 130.319 71.6138C130.319 44.3169 130.319 48.9312 130.319 41.691C130.319 38.5703 129.654 35.6319 128.415 33.0875C126.542 29.2402 123.46 26.3929 120.074 24.6047C116.66 22.8166 112.913 22 109.165 22C104.21 22 99.1335 23.4544 94.9928 26.7266C92.9378 28.3633 91.1555 30.5136 89.9161 33.0591C88.6767 35.6047 88.0122 38.5727 88.0122 41.6638C88.0122 48.3289 88.0122 59.8919 88.0122 101.64H72.4591C68.5038 101.64 64.9201 103.971 63.3171 107.587L40.9502 158.044C39.7177 160.824 39.8174 164.014 41.2212 166.712L75.5116 232.616C77.2332 235.924 80.634 238 84.3637 238C113.968 238 176.272 238 184.707 238C188.243 238 191.476 237.546 194.408 236.456C196.614 235.638 198.638 234.456 200.331 232.941C202.899 230.669 204.682 227.82 205.952 224.821C207.22 221.792 208.067 218.52 208.792 214.946C209.789 209.947 210.998 202.343 212.297 193.375C214.231 179.954 216.316 163.534 217.978 148.932C218.794 141.631 219.519 134.784 220.064 128.967C220.577 123.151 220.941 118.395 221 115.092C220.97 114.546 220.97 113.304 220.94 112.971V112.967ZM208.882 113.966V114.815C208.792 118.48 208.249 125.449 207.401 133.87C206.132 146.564 204.198 162.742 202.235 177.526C200.27 192.28 198.277 205.701 196.886 212.578C196.342 215.365 195.738 217.668 195.044 219.455C194.53 220.787 193.986 221.818 193.442 222.575C192.596 223.727 191.84 224.333 190.632 224.908C189.393 225.453 187.519 225.877 184.709 225.877C174.612 225.877 109.763 225.877 88.628 225.877C86.7631 225.877 85.0867 224.839 84.2259 223.185L53.5276 164.179C52.8258 162.83 52.776 161.235 53.3922 159.845L72.493 116.757C73.2945 114.949 75.0863 113.783 77.064 113.783H88.0133C88.0133 129.549 88.0133 142.849 88.0133 150.155C88.0133 153.493 90.7191 156.197 94.0568 156.197C97.3945 156.197 100.1 153.539 100.1 150.202C100.1 128.032 100.1 51.4671 100.1 41.6887C100.1 40.265 100.373 39.2342 100.795 38.3857C101.4 37.1135 102.397 36.1431 103.877 35.3562C105.328 34.5988 107.231 34.1147 109.165 34.1443C111.763 34.1443 114.242 34.9621 115.783 36.2354C116.567 36.8709 117.142 37.5692 117.535 38.4165C117.959 39.265 118.231 40.2946 118.231 41.7194C118.231 50.717 118.231 63.1902 118.231 89.577C118.231 95.0739 118.231 97.0541 118.231 98.6823C118.231 102.02 120.936 104.725 124.274 104.725C127.612 104.725 130.318 102.022 130.318 98.6845C130.318 96.239 130.318 93.1445 130.318 89.577C130.318 88.1534 130.59 87.1238 131.013 86.2753C131.617 85.0031 132.615 84.0338 134.095 83.2457C135.545 82.4883 137.448 82.0043 139.383 82.0339C141.982 82.0339 144.459 82.8516 146.001 84.1238C146.787 84.7593 147.361 85.4563 147.754 86.3048C148.176 87.1534 148.449 88.1829 148.449 89.6066C148.449 94.0598 148.449 98.2101 148.449 101.725V105.739C148.449 109.077 151.155 111.783 154.493 111.783C157.83 111.783 160.536 109.078 160.536 105.741C160.536 104.54 160.536 103.192 160.536 101.725C160.536 100.362 160.809 99.3616 161.231 98.5438C161.836 97.332 162.862 96.332 164.344 95.545C165.825 94.7581 167.788 94.3036 169.723 94.3036C172.322 94.3036 174.769 95.1214 176.28 96.3332C177.035 96.9391 177.609 97.6362 178.002 98.4539C178.395 99.3024 178.666 100.301 178.666 101.726V111.982C178.666 115.32 181.372 118.025 184.71 118.025H186.572C188.881 118.025 190.753 116.153 190.753 113.844C190.753 112.603 190.995 111.753 191.418 110.966C192.022 109.815 193.08 108.785 194.651 107.997C196.222 107.209 198.247 106.725 200.241 106.756C202.809 106.756 205.227 107.543 206.616 108.694C207.341 109.27 207.854 109.906 208.247 110.693C208.61 111.481 208.881 112.45 208.881 113.874V113.965L208.882 113.966Z" fill="black"/>
</svg>

<svg width="260" height="260" viewBox="0 0 260 260" fill="none" xmlns="http://www.w3.org/2000/svg"><path d="M220.94 112.967c-.091-2.756-.695-5.362-1.813-7.665-1.813-3.787-4.865-6.574-8.219-8.27-3.353-1.727-7.01-2.454-10.667-2.485-3.444 0-6.89.728-10.092 2.181-.302-1.272-.725-2.514-1.3-3.635-1.842-3.847-4.925-6.665-8.309-8.422-3.385-1.758-7.132-2.576-10.818-2.576a24.02 24.02 0 0 0-9.881 2.15c-.302-1.15-.696-2.301-1.209-3.332-1.873-3.847-4.955-6.694-8.339-8.452-3.415-1.787-7.161-2.605-10.909-2.605-3.051 0-6.164.577-9.065 1.758V41.69c0-3.12-.665-6.06-1.904-8.604-1.873-3.847-4.955-6.694-8.341-8.482C116.66 22.817 112.913 22 109.165 22c-4.955 0-10.032 1.454-14.172 4.727a18.445 18.445 0 0 0-5.077 6.332c-1.24 2.546-1.904 5.514-1.904 8.605v59.976H72.46a10 10 0 0 0-9.142 5.947L40.95 158.044a10 10 0 0 0 .271 8.668l34.29 65.904A9.972 9.972 0 0 0 84.365 238h100.343c3.536 0 6.769-.454 9.701-1.544 2.206-.818 4.23-2 5.923-3.515 2.568-2.272 4.351-5.121 5.621-8.12 1.268-3.029 2.115-6.301 2.84-9.875.997-4.999 2.206-12.603 3.505-21.571 1.934-13.421 4.019-29.841 5.681-44.443.816-7.301 1.541-14.148 2.086-19.965.513-5.816.877-10.572.936-13.875-.03-.546-.03-1.788-.06-2.121v-.004Zm-12.058.999v.849c-.09 3.665-.633 10.634-1.481 19.055-1.269 12.694-3.203 28.872-5.166 43.656-1.965 14.754-3.958 28.175-5.349 35.052-.544 2.787-1.148 5.09-1.842 6.877-.514 1.332-1.058 2.363-1.602 3.12-.846 1.152-1.602 1.758-2.81 2.333-1.239.545-3.113.969-5.923.969H88.628c-1.865 0-3.541-1.038-4.402-2.692l-30.698-59.006a5 5 0 0 1-.136-4.334l19.101-43.088a5 5 0 0 1 4.571-2.974h10.95v36.372a6.042 6.042 0 0 0 6.043 6.042c3.337 0 6.043-2.658 6.043-5.995V41.689c0-1.424.273-2.455.695-3.303.605-1.273 1.602-2.243 3.082-3.03 1.451-.757 3.354-1.241 5.288-1.212 2.598 0 5.077.818 6.618 2.091.784.636 1.359 1.334 1.752 2.181.424.849.696 1.879.696 3.303v56.963a6.042 6.042 0 0 0 6.043 6.043 6.041 6.041 0 0 0 6.044-6.04v-9.108c0-1.424.272-2.453.695-3.302.604-1.272 1.602-2.241 3.082-3.03 1.45-.757 3.353-1.24 5.288-1.211 2.599 0 5.076.818 6.618 2.09.786.635 1.36 1.332 1.753 2.18.422.85.695 1.879.695 3.303v16.132a6.044 6.044 0 0 0 12.087.002v-4.016c0-1.363.273-2.363.695-3.181.605-1.212 1.631-2.212 3.113-2.999 1.481-.787 3.444-1.241 5.379-1.241 2.599 0 5.046.817 6.557 2.03.755.605 1.329 1.302 1.722 2.12.393.848.664 1.847.664 3.272v10.256a6.043 6.043 0 0 0 6.044 6.043h1.862a4.181 4.181 0 0 0 4.181-4.181c0-1.241.242-2.091.665-2.878.604-1.151 1.662-2.181 3.233-2.969 1.571-.788 3.596-1.272 5.59-1.241 2.568 0 4.986.787 6.375 1.938a5.752 5.752 0 0 1 1.631 1.999c.363.788.634 1.757.634 3.181v.091l.001.001Z" fill="#000"/></svg>
